src/components/Home/Features/assets/feature-ad.svg

<svg width="118" height="92" viewBox="0 0 118 92" fill="none" xmlns="http://www.w3.org/2000/svg">
<path fill-rule="evenodd" clip-rule="evenodd" d="M0.320312 5.99998C0.320312 2.86386 2.86264 0.321533 5.99876 0.321533H83.9988C87.1349 0.321533 89.6772 2.86386 89.6772 5.99998V64C89.6772 67.1361 87.1349 69.6784 83.9988 69.6784H5.99876C2.86264 69.6784 0.320312 67.1361 0.320312 64V5.99998ZM5.99876 3.67843C4.71661 3.67843 3.67721 4.71783 3.67721 5.99998V64C3.67721 65.2821 4.71661 66.3215 5.99876 66.3215H83.9988C85.2809 66.3215 86.3203 65.2821 86.3203 64V5.99998C86.3203 4.71783 85.2809 3.67843 83.9988 3.67843H5.99876Z" fill="#010101"/>
<path fill-rule="evenodd" clip-rule="evenodd" d="M0.320312 19.5C0.320312 18.573 1.07178 17.8215 1.99876 17.8215H87.4988C88.4257 17.8215 89.1772 18.573 89.1772 19.5C89.1772 20.427 88.4257 21.1784 87.4988 21.1784H1.99876C1.07178 21.1784 0.320312 20.427 0.320312 19.5ZM32.0418 28.3221C32.6928 28.3388 33.2754 28.7306 33.5365 29.3272L44.0365 53.3272C44.408 54.1765 44.0208 55.1662 43.1715 55.5377C42.3223 55.9093 41.3326 55.522 40.961 54.6727L37.2448 46.1784H25.7861L21.5 54.7506C21.0855 55.5797 20.0773 55.9158 19.2481 55.5012C18.419 55.0867 18.083 54.0785 18.4975 53.2494L30.4975 29.2494C30.7888 28.6668 31.3907 28.3054 32.0418 28.3221ZM27.4646 42.8215H35.7761L31.8974 33.9558L27.4646 42.8215ZM48.8203 30C48.8203 29.073 49.5718 28.3215 50.4988 28.3215C52.5273 28.3215 56.7225 28.4368 60.4539 30.1643C62.3471 31.0408 64.1745 32.3559 65.5238 34.3245C66.8802 36.3034 67.6772 38.8319 67.6772 42C67.6772 45.1681 66.8802 47.6966 65.5238 49.6755C64.1745 51.644 62.3471 52.9591 60.4539 53.8356C56.7225 55.5631 52.5273 55.6784 50.4988 55.6784C49.5718 55.6784 48.8203 54.927 48.8203 54V30ZM52.1772 31.718V52.2819C54.1585 52.1825 56.7551 51.8488 59.0436 50.7893C60.5254 50.1033 61.823 49.1372 62.755 47.7776C63.6798 46.4284 64.3203 44.5819 64.3203 42C64.3203 39.4181 63.6798 37.5716 62.755 36.2224C61.823 34.8628 60.5254 33.8966 59.0436 33.2106C56.7551 32.1511 54.1585 31.8175 52.1772 31.718Z" fill="#010101"/>
<path d="M74.5385 68.071C74.5385 70.2781 72.4444 72.899 73.1424 74.8302C73.8405 77.0373 77.0513 77.865 78.3077 79.5203C79.5641 81.3136 79.4245 84.6242 81.2393 85.8657C83.0541 87.1072 86.1253 86.0036 88.2193 86.6934C90.3133 87.3831 92.1281 90.142 94.3617 90.142C96.5953 90.142 98.4101 87.3831 100.504 86.6934C102.598 86.0036 105.809 87.2451 107.484 85.8657C109.299 84.6242 109.02 81.3136 110.416 79.5203C111.672 77.727 114.883 76.8994 115.581 74.8302C116.279 72.7611 114.185 70.2781 114.185 68.071C114.185 65.8639 116.279 63.243 115.581 61.3117C114.883 59.2426 111.672 58.4149 110.416 56.6217C109.159 54.8284 109.299 51.5177 107.484 50.2762C105.669 49.0348 102.598 50.1383 100.504 49.4486C98.4101 48.7589 96.5953 46 94.3617 46C92.1281 46 90.3133 48.7589 88.2193 49.4486C86.1253 50.1383 82.9145 48.8968 81.2393 50.2762C79.4245 51.5177 79.7037 54.8284 78.3077 56.6217C77.0513 58.4149 73.8405 59.2426 73.1424 61.3117C72.4444 63.243 74.5385 65.8639 74.5385 68.071Z" fill="#B69538"/>
<path fill-rule="evenodd" clip-rule="evenodd" d="M90.383 46.3688C91.3423 45.6204 92.7072 44.6088 94.3622 44.6088C96.0173 44.6088 97.3822 45.6204 98.3414 46.3688C98.5133 46.5028 98.6736 46.6303 98.8272 46.7525C99.1606 47.0176 99.4625 47.2577 99.7824 47.4855C100.235 47.808 100.609 48.0184 100.94 48.1272C101.274 48.2372 101.701 48.2917 102.253 48.3034C102.659 48.312 103.063 48.298 103.511 48.2825C103.687 48.2764 103.869 48.2701 104.061 48.2649C105.266 48.2318 106.94 48.2182 108.27 49.128C109.64 50.0653 110.16 51.6921 110.496 52.8556C110.563 53.0876 110.623 53.3037 110.68 53.51C110.788 53.8981 110.886 54.2518 111.004 54.6124C111.18 55.1443 111.356 55.5385 111.556 55.8234C111.746 56.0946 112.046 56.3783 112.484 56.7023C112.812 56.9461 113.157 57.1698 113.541 57.4195C113.68 57.5094 113.824 57.6027 113.974 57.7015C114.965 58.3544 116.368 59.3096 116.895 60.8529C117.176 61.6404 117.15 62.4287 117.027 63.1159C116.906 63.8002 116.67 64.4781 116.449 65.073C116.383 65.2516 116.318 65.4215 116.256 65.5854C116.096 66.0046 115.951 66.385 115.828 66.7748C115.66 67.3048 115.577 67.726 115.577 68.071C115.577 68.4137 115.66 68.8245 115.826 69.3406C115.946 69.7149 116.086 70.0762 116.242 70.4775C116.307 70.6468 116.376 70.8233 116.447 71.0109C116.865 72.1174 117.428 73.7089 116.9 75.2749C116.376 76.8264 114.968 77.7855 113.974 78.4404C113.824 78.5392 113.68 78.6325 113.541 78.7224C113.157 78.9721 112.812 79.1958 112.484 79.4396C112.046 79.7636 111.746 80.0473 111.556 80.3185C111.542 80.3376 111.528 80.3564 111.514 80.3748C111.301 80.649 111.117 81.0279 110.941 81.5428C110.807 81.9371 110.699 82.3395 110.578 82.7898C110.537 82.9432 110.495 83.1022 110.449 83.2684C110.139 84.3964 109.668 86.0251 108.321 86.9787C107.022 88.0118 105.285 87.9765 104.095 87.9282C103.87 87.919 103.659 87.9083 103.457 87.8981C103.03 87.8764 102.643 87.8568 102.248 87.8582C101.683 87.8601 101.259 87.9095 100.94 88.0147C100.609 88.1235 100.235 88.3339 99.7824 88.6564C99.4626 88.8842 99.1606 89.1243 98.8272 89.3894C98.6736 89.5116 98.5133 89.6391 98.3414 89.7732C97.3822 90.5215 96.0173 91.5331 94.3622 91.5331C92.7072 91.5331 91.3423 90.5215 90.383 89.7732C90.2112 89.6391 90.0508 89.5116 89.8972 89.3894C89.5638 89.1243 89.2619 88.8842 88.942 88.6564C88.489 88.3339 88.1149 88.1235 87.7846 88.0147C87.4507 87.9047 87.0236 87.8502 86.4715 87.8385C86.0654 87.8299 85.6609 87.8439 85.2136 87.8594C85.0377 87.8655 84.8551 87.8718 84.6633 87.8771C83.4583 87.9101 81.7843 87.9237 80.4543 87.0139C79.0842 86.0766 78.5646 84.4498 78.2282 83.2863C78.1611 83.0543 78.1013 82.8382 78.0442 82.6319C77.9368 82.2438 77.8389 81.8901 77.7199 81.5295C77.549 81.0113 77.3775 80.6238 77.1842 80.3408C76.9977 80.1021 76.7026 79.8435 76.267 79.536C75.9757 79.3304 75.6904 79.1483 75.3751 78.947C75.1812 78.8232 74.9759 78.6921 74.7509 78.5439C73.7267 77.8692 72.3448 76.8831 71.825 75.2759C71.5489 74.4927 71.5754 73.7094 71.697 73.0261C71.8187 72.3417 72.0541 71.6638 72.2754 71.0689C72.3418 70.8903 72.4065 70.7204 72.4688 70.5565C72.6283 70.1374 72.773 69.757 72.8963 69.3671C73.0639 68.8371 73.1478 68.4159 73.1478 68.071C73.1478 67.726 73.0639 67.3048 72.8963 66.7748C72.773 66.3849 72.6283 66.0046 72.4688 65.5854C72.4065 65.4215 72.3418 65.2516 72.2754 65.073C72.0541 64.4781 71.8187 63.8002 71.697 63.1159C71.5747 62.4288 71.5486 61.6405 71.8295 60.8531C72.3567 59.3097 73.7596 58.3545 74.7509 57.7015C74.9009 57.6027 75.0445 57.5094 75.183 57.4195C75.5675 57.1698 75.912 56.9461 76.2409 56.7023C76.6782 56.3783 76.9788 56.0946 77.1688 55.8234C77.1822 55.8043 77.1961 55.7855 77.2104 55.7671C77.4238 55.4929 77.6077 55.1141 77.7833 54.5991C77.9178 54.2048 78.0256 53.8024 78.1461 53.3521C78.1872 53.1987 78.2298 53.0397 78.2755 52.8735C78.5853 51.7455 79.0563 50.1168 80.4038 49.1632C81.7021 48.1301 83.4393 48.1654 84.6292 48.2137C84.8542 48.2229 85.0652 48.2336 85.2674 48.2438C85.6943 48.2655 86.0814 48.2851 86.4765 48.2837C87.0416 48.2818 87.4652 48.2325 87.7846 48.1272C88.1149 48.0184 88.489 47.808 88.942 47.4855C89.2619 47.2577 89.5638 47.0176 89.8972 46.7525C90.0509 46.6303 90.2112 46.5028 90.383 46.3688ZM90.5557 49.752C90.0097 50.1407 89.3717 50.5338 88.655 50.7699C87.9274 51.0095 87.1644 51.0637 86.4862 51.066C86.0132 51.0677 85.5023 51.0419 85.0398 51.0186C84.8559 51.0093 84.6795 51.0004 84.5163 50.9938C83.1733 50.9392 82.4961 51.0438 82.1241 51.3501C82.0923 51.3764 82.0593 51.4011 82.0252 51.4244C81.5967 51.7176 81.3078 52.3385 80.9584 53.6105C80.924 53.7356 80.8886 53.8682 80.8518 54.0058C80.7259 54.4765 80.5843 55.0058 80.4166 55.4973C80.1986 56.1367 79.8995 56.8328 79.4273 57.4485C78.9918 58.0604 78.4292 58.5437 77.8975 58.9377C77.4929 59.2376 77.0441 59.5289 76.6404 59.7909C76.5156 59.8719 76.395 59.9501 76.2815 60.0249C75.1817 60.7494 74.6357 61.2388 74.4611 61.7564C74.4579 61.7658 74.4547 61.7752 74.4513 61.7846C74.3886 61.958 74.3629 62.2162 74.4363 62.6286C74.5108 63.0478 74.6681 63.5251 74.883 64.1028C74.9332 64.2375 74.9876 64.3804 75.044 64.5288C75.2126 64.9717 75.3998 65.4637 75.5491 65.9358C75.7522 66.5782 75.9301 67.3123 75.9301 68.071C75.9301 68.8296 75.7522 69.5637 75.5491 70.2061C75.3998 70.6782 75.2126 71.1702 75.044 71.6131C74.9876 71.7615 74.9332 71.9044 74.883 72.0391C74.6681 72.6168 74.5108 73.0941 74.4363 73.5134C74.3629 73.9257 74.3886 74.1839 74.4513 74.3573C74.4577 74.375 74.4637 74.3928 74.4694 74.4107C74.6542 74.9951 75.2172 75.5193 76.2815 76.2204C76.435 76.3216 76.608 76.4322 76.7891 76.5482C77.1462 76.7767 77.5353 77.0257 77.8714 77.2629C78.4005 77.6363 78.9735 78.0959 79.4163 78.6792C79.427 78.6933 79.4374 78.7076 79.4475 78.722C79.8761 79.3338 80.1537 80.0259 80.3622 80.6579C80.5018 81.0811 80.6316 81.5492 80.7499 81.9758C80.8026 82.1658 80.853 82.3476 80.901 82.5135C81.2626 83.764 81.5805 84.4132 82.0252 84.7175C82.5101 85.0491 83.2791 85.1317 84.5869 85.0958C84.7326 85.0918 84.8868 85.0864 85.0466 85.0809C85.5193 85.0645 86.0403 85.0464 86.5304 85.0568C87.1998 85.071 87.9419 85.1371 88.655 85.372C89.3717 85.6081 90.0097 86.0012 90.5557 86.3899C90.9384 86.6624 91.3342 86.977 91.6937 87.2628C91.8337 87.3741 91.9682 87.481 92.0943 87.5794C93.1243 88.3829 93.7837 88.7508 94.3622 88.7508C94.9408 88.7508 95.6001 88.3829 96.6301 87.5794C96.7562 87.481 96.8907 87.3741 97.0307 87.2628C97.3902 86.977 97.786 86.6624 98.1687 86.3899C98.7147 86.0012 99.3528 85.6081 100.069 85.372C100.797 85.1324 101.56 85.0782 102.238 85.0759C102.711 85.0742 103.222 85.1 103.685 85.1233C103.869 85.1326 104.045 85.1415 104.208 85.1482C105.551 85.2027 106.228 85.0981 106.6 84.7918C106.632 84.7656 106.665 84.7408 106.699 84.7175C107.128 84.4243 107.417 83.8034 107.766 82.5314C107.8 82.4062 107.836 82.2737 107.873 82.1361C107.999 81.6654 108.14 81.1361 108.308 80.6446C108.526 80.0052 108.825 79.3091 109.297 78.6933C109.733 78.0815 110.295 77.5982 110.827 77.2042C111.232 76.9043 111.68 76.613 112.084 76.351C112.209 76.27 112.329 76.1918 112.443 76.117C113.543 75.3925 114.089 74.9031 114.263 74.3855C114.433 73.8823 114.298 73.1977 113.844 71.9937C113.792 71.8564 113.735 71.7099 113.676 71.5572C113.51 71.1279 113.325 70.6502 113.178 70.1938C112.973 69.5589 112.794 68.8317 112.794 68.071C112.794 67.3123 112.972 66.5782 113.175 65.9358C113.325 65.4637 113.512 64.9717 113.68 64.5288C113.737 64.3804 113.791 64.2375 113.841 64.1028C114.056 63.5251 114.214 63.0478 114.288 62.6286C114.362 62.2162 114.336 61.958 114.273 61.7846L114.271 61.7795C114.269 61.7718 114.266 61.7641 114.263 61.7564C114.089 61.2388 113.543 60.7494 112.443 60.0249C112.329 59.9501 112.209 59.8719 112.084 59.7909C111.68 59.5289 111.232 59.2376 110.827 58.9377C110.287 58.5376 109.715 58.0453 109.277 57.4199C108.848 56.8081 108.571 56.116 108.362 55.484C108.223 55.0608 108.093 54.5927 107.974 54.166C107.922 53.976 107.871 53.7943 107.823 53.6284C107.462 52.3779 107.144 51.7287 106.699 51.4244C106.214 51.0928 105.445 51.0102 104.138 51.0461C103.992 51.0501 103.838 51.0555 103.678 51.061C103.205 51.0774 102.684 51.0955 102.194 51.0851C101.525 51.0709 100.782 51.0048 100.069 50.7699C99.3528 50.5338 98.7147 50.1407 98.1687 49.752C97.786 49.4795 97.3902 49.1649 97.0307 48.8791C96.8907 48.7678 96.7562 48.6609 96.6301 48.5625C95.6001 47.759 94.9408 47.3911 94.3622 47.3911C93.7837 47.3911 93.1244 47.759 92.0943 48.5625C91.9682 48.6609 91.8337 48.7678 91.6937 48.8791C91.3342 49.1649 90.9384 49.4795 90.5557 49.752Z" fill="#010101"/>
<path d="M93.3102 74.4615H96.2114C96.9809 74.4615 97.7188 74.1579 98.2629 73.6174C98.807 73.077 99.1126 72.344 99.1126 71.5797C99.1126 70.8154 98.807 70.0824 98.2629 69.542C97.7188 69.0016 96.9809 68.6979 96.2114 68.6979H93.3102C91.7713 68.6979 90.2955 68.0907 89.2073 67.0098C88.1191 65.929 87.5078 64.463 87.5078 62.9344C87.5078 61.4058 88.1191 59.9398 89.2073 58.8589C90.2955 57.7781 91.7713 57.1708 93.3102 57.1708V55.73C93.3102 55.3478 93.4631 54.9813 93.7351 54.7111C94.0071 54.4409 94.3761 54.2891 94.7608 54.2891C95.1455 54.2891 95.5145 54.4409 95.7866 54.7111C96.0586 54.9813 96.2114 55.3478 96.2114 55.73V57.1708C97.7503 57.1708 99.2262 57.7781 100.314 58.8589C101.403 59.9398 102.014 61.4058 102.014 62.9344C102.014 63.3165 101.861 63.683 101.589 63.9533C101.317 64.2235 100.948 64.3753 100.563 64.3753C100.179 64.3753 99.8095 64.2235 99.5375 63.9533C99.2655 63.683 99.1126 63.3165 99.1126 62.9344C99.1126 62.1701 98.807 61.4371 98.2629 60.8967C97.7188 60.3562 96.9809 60.0526 96.2114 60.0526H93.3102C92.5408 60.0526 91.8028 60.3562 91.2588 60.8967C90.7147 61.4371 90.409 62.1701 90.409 62.9344C90.409 63.6987 90.7147 64.4317 91.2588 64.9721C91.8028 65.5126 92.5408 65.8162 93.3102 65.8162H96.2114C97.7503 65.8162 99.2262 66.4234 100.314 67.5043C101.403 68.5852 102.014 70.0511 102.014 71.5797C102.014 73.1083 101.403 74.5743 100.314 75.6552C99.2262 76.736 97.7503 77.3433 96.2114 77.3433V78.7842C96.2114 79.1663 96.0586 79.5328 95.7866 79.803C95.5145 80.0732 95.1455 80.2251 94.7608 80.2251C94.3761 80.2251 94.0071 80.0732 93.7351 79.803C93.4631 79.5328 93.3102 79.1663 93.3102 78.7842V77.3433C91.7713 77.3433 90.2955 76.736 89.2073 75.6552C88.1191 74.5743 87.5078 73.1083 87.5078 71.5797C87.5078 71.1976 87.6606 70.8311 87.9327 70.5609C88.2047 70.2906 88.5737 70.1388 88.9584 70.1388C89.3431 70.1388 89.7121 70.2906 89.9841 70.5609C90.2562 70.8311 90.409 71.1976 90.409 71.5797C90.409 72.344 90.7147 73.077 91.2588 73.6174C91.8028 74.1579 92.5408 74.4615 93.3102 74.4615Z" fill="#010101"/>
<path d="M67 11C67 10.4477 67.4477 9.99997 68 9.99997C68.5523 9.99997 69 10.4477 69 11C69 11.5523 68.5523 12 68 12C67.4477 12 67 11.5523 67 11Z" fill="#010101"/>
<path fill-rule="evenodd" clip-rule="evenodd" d="M67.9973 10.3215C67.6226 10.3215 67.3189 10.6253 67.3189 11C67.3189 11.3747 67.6226 11.6784 67.9973 11.6784C68.372 11.6784 68.6758 11.3747 68.6758 11C68.6758 10.6253 68.372 10.3215 67.9973 10.3215ZM70.6758 11C70.6758 12.4793 69.4766 13.6784 67.9973 13.6784C66.5181 13.6784 65.3189 12.4793 65.3189 11C65.3189 9.52072 66.5181 8.32154 67.9973 8.32154C69.4766 8.32154 70.6758 9.52072 70.6758 11Z" fill="#010101"/>
<path d="M76 11C76 10.4477 76.4477 9.99997 77 9.99997C77.5523 9.99997 78 10.4477 78 11C78 11.5523 77.5523 12 77 12C76.4477 12 76 11.5523 76 11Z" fill="#010101"/>
<path fill-rule="evenodd" clip-rule="evenodd" d="M76.9973 10.3215C76.6226 10.3215 76.3189 10.6253 76.3189 11C76.3189 11.3747 76.6226 11.6784 76.9973 11.6784C77.372 11.6784 77.6758 11.3747 77.6758 11C77.6758 10.6253 77.372 10.3215 76.9973 10.3215ZM79.6758 11C79.6758 12.4793 78.4766 13.6784 76.9973 13.6784C75.5181 13.6784 74.3189 12.4793 74.3189 11C74.3189 9.52072 75.5181 8.32154 76.9973 8.32154C78.4766 8.32154 79.6758 9.52072 79.6758 11Z" fill="#010101"/>
</svg>

<svg width="118" height="92" fill="none" xmlns="http://www.w3.org/2000/svg"><path fill-rule="evenodd" clip-rule="evenodd" d="M.32 6A5.678 5.678 0 0 1 6 .322h78A5.678 5.678 0 0 1 89.677 6v58A5.678 5.678 0 0 1 84 69.678h-78A5.678 5.678 0 0 1 .32 64V6zM6 3.678A2.322 2.322 0 0 0 3.677 6v58A2.322 2.322 0 0 0 6 66.322h78A2.322 2.322 0 0 0 86.32 64V6A2.322 2.322 0 0 0 84 3.678h-78z" fill="#010101"/><path fill-rule="evenodd" clip-rule="evenodd" d="M.32 19.5c0-.927.752-1.678 1.679-1.678h85.5a1.678 1.678 0 0 1 0 3.356h-85.5A1.678 1.678 0 0 1 .32 19.5zm31.722 8.822a1.679 1.679 0 0 1 1.494 1.005l10.5 24a1.678 1.678 0 1 1-3.075 1.346l-3.716-8.495H25.786L21.5 54.751a1.678 1.678 0 1 1-3.003-1.502l12-24a1.678 1.678 0 0 1 1.545-.927zm-4.577 14.5h8.311l-3.879-8.866-4.432 8.865zM48.82 30c0-.927.752-1.678 1.679-1.678 2.028 0 6.223.115 9.955 1.842 1.893.877 3.72 2.192 5.07 4.16 1.356 1.98 2.153 4.508 2.153 7.676s-.797 5.697-2.153 7.675c-1.35 1.969-3.177 3.284-5.07 4.16-3.732 1.728-7.927 1.843-9.955 1.843A1.678 1.678 0 0 1 48.82 54V30zm3.357 1.718v20.564c1.981-.1 4.578-.433 6.867-1.493 1.481-.686 2.779-1.652 3.711-3.011.925-1.35 1.565-3.196 1.565-5.778 0-2.582-.64-4.428-1.565-5.778-.932-1.36-2.23-2.325-3.711-3.011-2.289-1.06-4.886-1.393-6.867-1.493z" fill="#010101"/><path d="M74.538 68.071c0 2.207-2.094 4.828-1.396 6.76.699 2.206 3.91 3.034 5.166 4.69 1.256 1.793 1.116 5.103 2.931 6.345 1.815 1.241 4.886.138 6.98.827 2.094.69 3.91 3.449 6.143 3.449 2.233 0 4.048-2.759 6.142-3.449 2.094-.69 5.305.552 6.98-.827 1.815-1.242 1.536-4.552 2.932-6.346 1.256-1.793 4.467-2.62 5.165-4.69.698-2.069-1.396-4.552-1.396-6.759 0-2.207 2.094-4.828 1.396-6.76-.698-2.068-3.909-2.896-5.165-4.69-1.257-1.793-1.117-5.103-2.932-6.345-1.815-1.241-4.886-.138-6.98-.827C98.41 48.759 96.595 46 94.362 46c-2.234 0-4.049 2.759-6.143 3.449-2.094.69-5.304-.552-6.98.827-1.815 1.242-1.535 4.552-2.931 6.346-1.257 1.793-4.468 2.62-5.166 4.69-.698 1.931 1.397 4.552 1.397 6.759z" fill="#B69538"/><path fill-rule="evenodd" clip-rule="evenodd" d="M90.383 46.369c.96-.749 2.324-1.76 3.98-1.76 1.654 0 3.02 1.011 3.978 1.76.172.134.333.261.486.383.334.266.636.506.955.733.453.323.827.533 1.158.642.334.11.761.165 1.313.176.406.009.81-.005 1.258-.02.176-.007.358-.013.55-.018 1.205-.033 2.879-.047 4.209.863 1.37.937 1.89 2.564 2.226 3.728.067.232.127.448.184.654.108.388.206.742.324 1.102.176.532.352.926.552 1.211.19.272.49.555.928.88.328.243.673.467 1.057.716l.433.283c.991.652 2.394 1.608 2.921 3.15.281.788.255 1.577.132 2.264-.121.684-.357 1.362-.578 1.957-.066.179-.131.349-.193.512-.16.42-.305.8-.428 1.19-.168.53-.251.951-.251 1.296 0 .343.083.754.249 1.27.12.374.26.735.416 1.137.065.169.134.345.205.533.418 1.106.981 2.698.453 4.264-.524 1.551-1.932 2.51-2.926 3.165-.15.1-.294.192-.433.282-.384.25-.729.474-1.057.718-.438.324-.738.607-.928.879l-.042.056c-.213.274-.397.653-.573 1.168-.134.394-.242.796-.363 1.247-.041.153-.083.312-.129.478-.31 1.128-.781 2.757-2.128 3.71-1.299 1.034-3.036.999-4.226.95-.225-.009-.436-.02-.638-.03a22.134 22.134 0 0 0-1.209-.04c-.565.002-.989.051-1.308.157-.331.109-.705.319-1.158.641-.32.228-.621.468-.955.733-.153.123-.314.25-.486.384-.959.749-2.324 1.76-3.979 1.76-1.655 0-3.02-1.011-3.979-1.76a65.648 65.648 0 0 1-.486-.384c-.333-.265-.635-.505-.955-.733-.453-.322-.827-.532-1.157-.641-.334-.11-.761-.165-1.313-.177-.407-.008-.811.006-1.258.021-.176.007-.359.013-.55.018-1.206.033-2.88.047-4.21-.863-1.37-.937-1.89-2.564-2.226-3.728-.067-.232-.127-.448-.184-.654a23.3 23.3 0 0 0-.324-1.103c-.171-.518-.343-.905-.536-1.188-.186-.239-.481-.497-.917-.805-.291-.206-.577-.388-.892-.589a50.68 50.68 0 0 1-.624-.403c-1.024-.675-2.406-1.66-2.926-3.268-.276-.783-.25-1.567-.128-2.25.122-.684.357-1.362.578-1.957l.194-.513c.16-.419.304-.799.427-1.189.168-.53.252-.951.252-1.296 0-.345-.084-.766-.252-1.296-.123-.39-.268-.77-.427-1.19-.063-.163-.127-.333-.194-.512-.22-.595-.456-1.273-.578-1.957-.122-.687-.148-1.475.132-2.263.528-1.543 1.93-2.498 2.922-3.151.15-.1.293-.193.432-.282.384-.25.729-.474 1.058-.718.437-.324.738-.607.928-.879l.041-.056c.214-.274.398-.653.573-1.168.135-.394.243-.797.363-1.247l.13-.478c.31-1.129.78-2.757 2.128-3.71 1.298-1.034 3.035-.999 4.225-.95.225.009.436.02.638.03.427.022.814.041 1.21.04.565-.002.988-.051 1.308-.157.33-.109.704-.319 1.157-.642.32-.227.622-.467.955-.733.154-.122.314-.25.486-.383zm.173 3.383c-.546.389-1.184.782-1.901 1.018-.728.24-1.49.294-2.169.296-.473.002-.984-.024-1.446-.047-.184-.01-.36-.019-.524-.025-1.343-.055-2.02.05-2.392.356a1.35 1.35 0 0 1-.099.074c-.428.294-.717.915-1.067 2.187l-.106.395c-.126.47-.268 1-.435 1.491-.218.64-.517 1.336-.99 1.952-.435.611-.998 1.095-1.53 1.489-.404.3-.853.59-1.257.853l-.359.234c-1.1.724-1.645 1.214-1.82 1.731l-.01.029c-.062.173-.088.431-.015.844.075.419.232.896.447 1.474l.161.426c.169.443.356.935.505 1.407.203.642.381 1.376.381 2.135 0 .759-.178 1.493-.38 2.135-.15.472-.337.964-.506 1.407l-.161.426c-.215.578-.372 1.055-.447 1.474-.073.413-.047.67.015.844l.018.054c.185.584.748 1.108 1.813 1.81.153.1.326.211.507.327.357.229.746.478 1.082.715.53.373 1.103.833 1.545 1.416l.032.043c.428.612.706 1.304.914 1.936.14.423.27.891.388 1.318.053.19.103.372.151.537.362 1.251.68 1.9 1.124 2.204.485.332 1.254.415 2.562.379l.46-.015c.472-.017.993-.035 1.483-.024.67.014 1.412.08 2.125.315.717.236 1.355.63 1.9 1.018.383.272.78.587 1.139.873.14.111.274.218.4.316 1.03.804 1.69 1.172 2.268 1.172.579 0 1.238-.368 2.268-1.172.126-.098.26-.205.4-.316.36-.286.756-.6 1.139-.873.546-.389 1.184-.782 1.9-1.018.728-.24 1.491-.294 2.169-.296.473-.002.984.024 1.447.047.184.01.36.018.523.025 1.343.055 2.02-.05 2.392-.356.032-.026.065-.051.099-.075.429-.293.718-.914 1.067-2.186l.107-.395c.126-.47.267-1 .435-1.491.218-.64.517-1.336.989-1.952.436-.611.998-1.095 1.53-1.489.405-.3.853-.591 1.257-.853l.359-.234c1.1-.725 1.646-1.214 1.82-1.732.17-.503.035-1.187-.419-2.391l-.168-.437c-.166-.43-.351-.907-.498-1.363-.205-.635-.384-1.362-.384-2.123 0-.759.178-1.493.381-2.135.15-.472.337-.964.505-1.407l.161-.426c.215-.578.373-1.055.447-1.474.074-.413.048-.671-.015-.844l-.002-.005a.211.211 0 0 0-.008-.024c-.174-.517-.72-1.007-1.82-1.731a75.297 75.297 0 0 0-.359-.234 24.984 24.984 0 0 1-1.257-.853c-.54-.4-1.112-.893-1.55-1.518-.429-.612-.706-1.304-.915-1.936-.139-.423-.269-.891-.388-1.318-.052-.19-.103-.372-.151-.538-.361-1.25-.679-1.9-1.124-2.204-.485-.331-1.254-.414-2.561-.378l-.46.015c-.473.016-.994.035-1.484.024-.669-.014-1.412-.08-2.125-.315-.716-.236-1.354-.63-1.9-1.018a27.794 27.794 0 0 1-1.138-.873 57.81 57.81 0 0 0-.4-.316c-1.03-.804-1.69-1.172-2.269-1.172-.578 0-1.238.368-2.268 1.172-.126.098-.26.205-.4.316-.36.286-.756.6-1.138.873z" fill="#010101"/><path d="M93.31 74.462h2.901c.77 0 1.508-.304 2.052-.845a2.872 2.872 0 0 0 0-4.075 2.911 2.911 0 0 0-2.052-.844h-2.9a5.822 5.822 0 0 1-4.104-1.688 5.744 5.744 0 0 1-1.7-4.076c0-1.528.612-2.994 1.7-4.075a5.823 5.823 0 0 1 4.103-1.688V55.73c0-.382.153-.749.425-1.019a1.456 1.456 0 0 1 2.052 0c.272.27.424.637.424 1.019v1.44c1.54 0 3.015.608 4.103 1.689a5.741 5.741 0 0 1 1.7 4.075c0 .383-.153.749-.425 1.02a1.456 1.456 0 0 1-2.052 0 1.437 1.437 0 0 1-.424-1.02c0-.764-.306-1.497-.85-2.037a2.911 2.911 0 0 0-2.052-.844h-2.9a2.91 2.91 0 0 0-2.052.844 2.872 2.872 0 0 0 0 4.075 2.91 2.91 0 0 0 2.051.844h2.901a5.82 5.82 0 0 1 4.103 1.688 5.741 5.741 0 0 1 1.7 4.076 5.741 5.741 0 0 1-1.7 4.075 5.821 5.821 0 0 1-4.103 1.688v1.441c0 .382-.152.749-.424 1.019a1.456 1.456 0 0 1-2.052 0 1.436 1.436 0 0 1-.425-1.019v-1.44a5.823 5.823 0 0 1-4.103-1.689 5.744 5.744 0 0 1-1.7-4.075c0-.382.154-.749.426-1.02a1.455 1.455 0 0 1 2.051 0c.272.271.425.638.425 1.02 0 .764.306 1.497.85 2.037a2.91 2.91 0 0 0 2.051.844zM67 11a1 1 0 1 1 2 0 1 1 0 0 1-2 0z" fill="#010101"/><path fill-rule="evenodd" clip-rule="evenodd" d="M67.997 10.322a.678.678 0 1 0 0 1.356.678.678 0 0 0 0-1.357zm2.679.678a2.678 2.678 0 1 1-5.357 0 2.678 2.678 0 0 1 5.357 0z" fill="#010101"/><path d="M76 11a1 1 0 1 1 2 0 1 1 0 0 1-2 0z" fill="#010101"/><path fill-rule="evenodd" clip-rule="evenodd" d="M76.997 10.322a.678.678 0 1 0 0 1.356.678.678 0 0 0 0-1.357zm2.679.678a2.678 2.678 0 1 1-5.357 0 2.678 2.678 0 0 1 5.357 0z" fill="#010101"/></svg>
